X:99
T:Aria in F Major
C:Muffat, G.
M:3/4
L:1/8
Q:1/4=66
K:F
|:C2|F4 GA|B2 AG F2|G4 AB|c4 G2|
F4 GA|B2 cd e2|f2 ge dc|B4:|

